X:21100
T:JOHNNY ALLEN'S REEL 
B:DMI.0774
Z:Nordberg/Black
R:reel
%Q:1/4=180
M:C|
L:1/8
K:G
"D modal"
FG|AcBG AGFG|Addc d2FG|AcBG AGFD|AGGF G2FG|
AcBG AGFA|d2ef g2fg|afge dfec|dcAF G2||
AB|cBAg fde^c|dcAB c2AB|cBAg fde^c|dcAF G2AB|
cBAg fde^c|d2ef g2fg|afge dfec|dcAF G2|]

%%%

